X: 350
T: Bir Bahar Akşamı...
C: Selahaddin Pınar
O: Turkey
F: http://compmusic.upf.edu/node/140
N: hicaz--sarki--aksak--bir_bahar--selahattin_pinar
N: makam= hicaz
N: form= sarki
N: usul= aksak = 9/8
M: 9/8
L: 1/16
K: C _7/8B ^f ^c 
Q: 1/4=156
%%MIDI tuningsystem comma53
A3A d4 d4 d2c2 =B2 | z2 e4 e2=f3ed4e2  | \
w:  Bir  ba har  ak şa mı   |  rast la dım  *  *  si  | 
d8 c2B2 A4 z2 | A3Ad4d4d2 c2=B2  | 
w:  ze   SAZ  |  Bir  ba har  ak şa mı   | 
z2e4e2 =f3e d4 e2 | d8A4d4z2  | d2e4e2 g2=f2 e4 d2 | \
w:  rast la dım  *  *  si  |  ze   SAZ  |  Se vinç li  bir  *  *  te  | 
e6 d2d2 c2c2 ^B2dc  | 
w:  lâş_ i çin *  dey *  di  | 
c6de =f2ed c4 z2 | e2 e4 f2g2 f2e2 f2g2  | \
w:  niz   SAZ  |  De rin *  den  *  *  *  ba  | 
a6g2 g2=f2 f2fe ed | 
w:  kın ca  göz *  le ri *  ni  | 
d6 efg2 fed4z2  | e2=f4e2 e2^f2 g4 z2 | \
w:  ze   SAZ  |  Ne den  ba şı nı zı   | 
z4e2 =f2e2 d2dc B2c2  | 
w:  ö ne  eğ *  *  *  *  di  | 
B8 dcd2 c2B2 A2 | A2 B4 A2A2 B2c2 d4  | \
w:  niz   SAZ  |  Ne den  ba şı nı zı   | 
z4 A2B2 B2A2 A2B2 {c}BA | 
w:  ö ne  eğ *  *  *  *  di  | 
A8G4A4z2  | A2d4c2 B2A2 B2c2 d2 | cB A6G4A4z2  | \
w:  niz   SAZ  |  ARANAĞME  |   | 
A2d4e2 =f2e2 d2f2 e2 | 
w:   | 
d8A4d4z2  | gfg4e2 f2g2 a4 z2 | (3a2g2a2(3g2f2g2(3=f2e2f2d4z2  | 
w:   |   |   | 
e2=f2 e2d2 g2f2 e2d2 c2 | BA B4 z2B8z2  | \
w:   |   | 
A2B2 A2B2 c2d2 d2c2 B2 | 
w:   | 
BA A4 z2.^e4.f4z2  | f2f4^e2 f2g2 f4 z2 | \
w:   |  İ çim de  u ya nan   | 
z2 a4 _1/4b2b2 a2a2 g2f2  | 
w:  es ki  bir_ ar  | 
f8 d4 f4 z2 | f2 f4 ^e2f2 g2f4z2  | z2a4_1/4b2 b2a2 a2g2 f2 | \
w:  zu   SAZ  |  İ çim de  u ya nan   |  es ki  bir_ ar  | 
f8d4f4z2  | 
w:  zu   SAZ  | 
^e2f2 g2a2 a2g2 f2e2 d2 | d4^e2 f2g2 a2a2 g2f2  | \
w:  De di  ki  *  yıl lar  |  dır  a ra dı *  ğım   | 
g8 efef g4 z2 | 
w:  bu    | 
z2 e4 f2g2 g2g2 =f2e2  | e2=f4g2 g2fe d2e2 ed | \
w:  Şim di  so ru yo rum   |  bü küp  *  boy *  *  *  *  nu  | 
d8z4d2 c2B2  | 
w:  mu  ah    | 
c2d2 c2=B2 c2d2 d2c2 B2 | =B4=f2 f2fe d2dc _7/8B2c2  | \
w:  Da ha  ön *  ce le ri   |  *  ne re dey *  *  *  *  *  di  | 
B8 dcd2 c2B2 A2 | 
w:  niz   SAZ  | 
A2 B2B2 A2A2 B2c2 d4  | z4 d2cB B2A2 A2B2 {c}BA | \
w:  Da ha  ön *  ce le ri   |  ne re *  dey *  *  *  *  di  | 
A8G4A4z2  | 
w:  niz   SAZ  | 
|


